X: 6373
T: Castell Caernarfon
R: jig
M: 6/8
K: Gmajor
|:f/e/|dBG GBd|ded BAG|BAG GBd|e3 g2:|
|:g|deg gfg|afd gdB|gab a>gf|e3 g2 g/a/|
bgb afa|ge/f/g edc|dBG GB/c/d|e3 g2:|
K: Dmaj
|:B|AFD DFA|A>BA FED|FED DFA|B2 d dcB|
AFD D2 F|A2 A FED|FED DFA|B^AB d2:|
|:d|AB/c/d dcd|ecA dAF|dd/e/f edc|B3 d2 d/e/|
f^ef =edc|dcd BAF|AFE DF/G/A|B>^AB d2:|

